picto/ski-lift-left-framed.svg

<svg class="color-immutable" width="30" height="30" viewBox="0 0 30 30" fill="none" xmlns="http://www.w3.org/2000/svg"><path d="M30 0H0V30H30V0Z" fill="#2D327D"/><path d="M25.5 3C26.325 3 27 3.675 27 4.5V25.5C27 26.325 26.325 27 25.5 27H4.5C3.675 27 3 26.325 3 25.5V4.5C3 3.675 3.675 3 4.5 3H25.5ZM25.5 2.625H4.5C3.46613 2.625 2.625 3.46613 2.625 4.5V25.5C2.625 26.5339 3.46613 27.375 4.5 27.375H25.5C26.5339 27.375 27.375 26.5339 27.375 25.5V4.5C27.375 3.46613 26.5339 2.625 25.5 2.625Z" fill="white"/><path d="M16.2341 12.5913L9.64379 6H8.63586L15.7305 13.0945L16.2341 12.5913Z" fill="white"/><path d="M19.1251 10.2309L15.8475 13.5092C15.7445 13.6105 15.6879 13.7497 15.6879 13.8937C15.6879 14.1935 15.9313 14.4368 16.2323 14.4368C16.3753 14.4368 16.5136 14.3803 16.616 14.278L19.1251 11.7693V10.2309Z" fill="white"/><path d="M18.2611 15.6243L18.7647 15.1211L17.5337 13.8908L17.0302 14.3941L18.2611 15.6243Z" fill="white"/><path d="M23.8913 11.5901L21.7742 9.4722C21.5233 9.22253 21.1852 9.08235 20.8321 9.08235C20.0972 9.08235 19.5009 9.67935 19.5009 10.4138V14.9158L17.8483 16.5685C17.7776 16.6392 17.7386 16.7348 17.7386 16.834V21.0558C17.7386 21.4394 18.0488 21.7494 18.4316 21.7494C18.8153 21.7494 19.1266 21.4394 19.1266 21.0558V17.6241L22.0482 14.8146C22.1217 14.7432 22.1635 14.6465 22.1635 14.5445V11.3468L22.9132 12.097V14.8685C22.9132 15.1685 23.1566 15.4117 23.4576 15.4117C23.7576 15.4117 24 15.1685 24 14.8685V11.8556C23.9999 11.7554 23.9609 11.6608 23.8913 11.5901Z" fill="white"/><path d="M10.7284 20.2983C10.5167 20.1562 10.3679 19.9362 10.3142 19.6873H9.45129C9.49674 20.0449 9.66392 20.3753 9.92589 20.6233C10.3243 20.9807 10.8047 21.2332 11.3258 21.3595L24 24V23.3103L11.8303 20.7746C11.4346 20.6911 11.0602 20.5294 10.7284 20.2983Z" fill="white"/><path d="M21.0425 17.4301C21.0425 17.1302 20.7991 16.8861 20.4981 16.8861C20.1989 16.8861 19.9554 17.1302 19.9554 17.4301C19.9554 17.7301 20.1989 17.9742 20.4981 17.9742C20.7991 17.9743 21.0425 17.7301 21.0425 17.4301Z" fill="white"/><path d="M20.8418 8.83823C21.483 8.83823 22.0035 8.31735 22.0035 7.67573C22.0035 7.03313 21.483 6.51323 20.8418 6.51323C20.1998 6.51323 19.6785 7.03313 19.6785 7.67573C19.6785 8.31735 20.1998 8.83823 20.8418 8.83823Z" fill="white"/></svg>

<svg class="color-immutable" width="30" height="30" viewBox="0 0 30 30" fill="none" xmlns="http://www.w3.org/2000/svg"><g clip-path="url(#a)"><path d="M30 0H0v30h30V0Z" fill="#2D327D"/><path d="M25.5 3c.825 0 1.5.675 1.5 1.5v21c0 .825-.675 1.5-1.5 1.5h-21c-.825 0-1.5-.675-1.5-1.5v-21C3 3.675 3.675 3 4.5 3h21Zm0-.375h-21A1.877 1.877 0 0 0 2.625 4.5v21c0 1.034.841 1.875 1.875 1.875h21a1.877 1.877 0 0 0 1.875-1.875v-21A1.877 1.877 0 0 0 25.5 2.625Z" fill="#fff"/><path d="M16.234 12.591 9.644 6H8.636l7.095 7.095.503-.504ZM19.125 10.23l-3.277 3.28a.544.544 0 0 0 .768.769l2.51-2.51v-1.538ZM18.261 15.624l.504-.503-1.231-1.23-.504.503 1.231 1.23Z" fill="#fff"/><path d="m23.891 11.59-2.117-2.118a1.332 1.332 0 0 0-2.273.942v4.502l-1.653 1.652a.375.375 0 0 0-.11.266v4.222a.693.693 0 1 0 1.389 0v-3.432l2.921-2.81a.376.376 0 0 0 .116-.27v-3.197l.75.75v2.771a.544.544 0 0 0 1.086 0v-3.012c0-.1-.04-.195-.109-.266Z" fill="#fff"/><path d="M10.728 20.298a.988.988 0 0 1-.414-.61h-.863c.046.357.213.687.475.935.398.358.879.61 1.4.736L24 24v-.69l-12.17-2.535a3.017 3.017 0 0 1-1.102-.477ZM21.043 17.43a.544.544 0 1 0-1.09 0 .544.544 0 0 0 1.09 0ZM20.842 8.838a1.163 1.163 0 1 0-.002-2.325 1.163 1.163 0 0 0 .002 2.325Z" fill="#fff"/></g><defs><clipPath id="a"><path fill="#fff" d="M0 0h30v30H0z"/></clipPath></defs></svg>
